public/grafical/icons/sprite.svg

<svg width="0" height="0" class="hidden">
  <symbol fill="none" xmlns="http://www.w3.org/2000/svg" viewBox="0 0 20 20" id="search">
    <path d="M19.7236 18.263L16.0223 14.5658C18.8541 11.0422 18.5809 5.83127 15.3516 2.63027C13.6624 0.942928 11.4019 0 8.99236 0C6.5828 0 4.34713 0.942928 2.63312 2.63027C0.943949 4.31762 0 6.57568 0 8.98263C0 11.3896 0.943949 13.6228 2.63312 15.335C4.32229 17.0223 6.5828 17.9653 8.99236 17.9653C11.0293 17.9653 13.0166 17.2705 14.6064 16.005L18.3076 19.7022C18.5064 19.9007 18.7548 20 19.0032 20C19.2764 20 19.5248 19.9007 19.6987 19.7022C20.0962 19.2804 20.0962 18.66 19.7236 18.263ZM15.9975 8.95782C15.9975 10.8189 15.2771 12.5806 13.9605 13.8958C12.644 15.2109 10.8803 15.9305 9.0172 15.9305C7.15414 15.9305 5.39045 15.2109 4.07389 13.8958C2.75733 12.5806 2.03694 10.8189 2.03694 8.95782C2.03694 7.09678 2.75733 5.33499 4.07389 4.01985C5.39045 2.70471 7.15414 1.98511 9.0172 1.98511C10.8803 1.98511 12.644 2.70471 13.9605 4.01985C15.2771 5.33499 15.9975 7.09678 15.9975 8.95782Z" fill="black"></path>
  </symbol>
  <symbol xmlns="http://www.w3.org/2000/svg" viewBox="0 0 28 20" id="symbol">
    <path d="M0.0505981 12H6.00933L2.03681 20H7.99554L11.9681 12V0H0.0505981V12Z"></path>
    <path d="M15.9406 0V12H21.8993L17.9268 20H23.8855L27.858 12V0H15.9406Z"></path>
  </symbol>
  <symbol fill="none" xmlns="http://www.w3.org/2000/svg" viewBox="0 0 26 49" id="arrow">
    <path d="M2.01077 1C2.27604 0.999519 2.53064 1.10678 2.71842 1.29831L24.7074 23.771C25.0975 24.1699 25.0975 24.8165 24.7074 25.2154L2.71842 47.6882C2.33489 48.0939 1.70221 48.1052 1.3051 47.7133C0.908079 47.3213 0.897116 46.6747 1.28055 46.2689C1.28861 46.2603 1.29676 46.252 1.3051 46.2438L22.5864 24.4942L1.30313 2.74464C0.912296 2.34626 0.911545 1.69946 1.30135 1.30003C1.48932 1.10754 1.74466 0.999519 2.01077 1Z" fill="black" stroke="black" stroke-width="2"></path>
  </symbol>
</svg>

<svg xmlns="http://www.w3.org/2000/svg"><symbol fill="none" id="arrow" viewBox="0 0 26 49"><title>arrow</title><path d="M2.01 1c.266 0 .52.107.708.298l21.99 22.473c.39.399.39 1.046 0 1.444L2.717 47.688a.984.984 0 0 1-1.413.025 1.038 1.038 0 0 1 0-1.47l21.281-21.749L1.303 2.744A1.037 1.037 0 0 1 1.301 1.3a.99.99 0 0 1 .71-.3Z" fill="#000" stroke="#000" stroke-width="2"/></symbol><symbol id="search" viewBox="0 0 20 20"><title>search</title><path d="m19.724 18.263-3.702-3.697c2.832-3.524 2.559-8.735-.67-11.936A8.949 8.949 0 0 0 8.992 0c-2.41 0-4.645.943-6.359 2.63A8.93 8.93 0 0 0 0 8.983c0 2.407.944 4.64 2.633 6.352a8.949 8.949 0 0 0 6.36 2.63 9.034 9.034 0 0 0 5.613-1.96l3.702 3.697a.982.982 0 0 0 .695.298c.273 0 .522-.1.696-.298.397-.422.397-1.042.025-1.439Zm-3.726-9.305a6.94 6.94 0 0 1-2.037 4.938 6.955 6.955 0 0 1-4.944 2.034 6.956 6.956 0 0 1-4.943-2.034 6.94 6.94 0 0 1-2.037-4.938A6.94 6.94 0 0 1 4.074 4.02a6.956 6.956 0 0 1 4.943-2.035c1.863 0 3.627.72 4.944 2.035a6.94 6.94 0 0 1 2.037 4.938Z"/></symbol><symbol id="symbol" viewBox="0 0 28 20"><title>symbol</title><path d="M.05 12h5.96l-3.973 8h5.959l3.972-8V0H.051v12ZM15.94 0v12h5.96l-3.973 8h5.959l3.972-8V0H15.941Z"/></symbol></svg>
